X:1
T:Braes of Mayen, The
T:Braes of Mayen, The
T:Alexander Walker
C:Alexander Walker
L:1/8
M:6/8
K:C
V:1 treble 
V:1
 A | cBA BeA | GED CB,A, | cBA BAG | dBA A2 A/B/ | cBA BeA | GED CB,A, | edc dcB | cAA A2 :| g | %10
 aba gec | dec dBG | aba gec | dBG A2 g | aba gec | dec dBG | edc dcB | cAA A2 g | aba gec | %19
 dec dBG | aba gec | deg a2 b | agf edc | dec BAG | ege dBG | BAA A2 || %26

